build/img/5+tablet.svg

<svg width="53" height="43" viewBox="0 0 53 43" fill="none" xmlns="http://www.w3.org/2000/svg">
<path d="M1.51172 21.7227L3.55078 0.765625H23.5166V7.61914H10.1211L9.38477 16.4551C10.9329 15.4167 12.5283 14.8975 14.1709 14.8975C17.5693 14.8975 20.1842 16.1058 22.0156 18.5225C23.8659 20.9391 24.791 24.3564 24.791 28.7744C24.791 32.9092 23.696 36.2415 21.5059 38.7715C19.3158 41.3014 16.3893 42.5664 12.7266 42.5664C10.5553 42.5664 8.5446 42.0566 6.69434 41.0371C4.84408 39.9987 3.38086 38.5638 2.30469 36.7324C1.2474 34.901 0.70931 32.8242 0.69043 30.502H8.62012C8.75228 32.2201 9.17708 33.5511 9.89453 34.4951C10.612 35.4391 11.5371 35.9111 12.6699 35.9111C13.9915 35.9111 15.0111 35.2786 15.7285 34.0137C16.446 32.7298 16.8047 30.8229 16.8047 28.293C16.8047 25.9141 16.3704 24.1204 15.502 22.9121C14.6523 21.7038 13.4535 21.0996 11.9053 21.0996C10.3949 21.0996 9.22428 21.6188 8.39355 22.6572L7.88379 23.3652L1.51172 21.7227ZM44.8984 18.8906H52.9131V26.3389H44.8984V37.8652H37.3086V26.3389H29.1523V18.8906H37.3086V7.8457H44.8984V18.8906Z" fill="url(#paint0_linear)"/>
<defs>
<linearGradient id="paint0_linear" x1="-2" y1="2" x2="23.7646" y2="49.8593" gradientUnits="userSpaceOnUse">
<stop stop-color="#D10A42"/>
<stop offset="1" stop-color="#0041CA"/>
</linearGradient>
</defs>
</svg>

<svg width="53" height="43" fill="none" xmlns="http://www.w3.org/2000/svg"><path d="M1.512 21.723L3.55.766h19.966v6.853H10.12l-.736 8.836c1.548-1.038 3.143-1.557 4.786-1.557 3.398 0 6.013 1.208 7.845 3.625 1.85 2.416 2.775 5.833 2.775 10.251 0 4.135-1.095 7.468-3.285 9.998-2.19 2.53-5.117 3.794-8.78 3.794-2.17 0-4.181-.51-6.032-1.529a11.578 11.578 0 01-4.39-4.305C1.248 34.901.71 32.824.69 30.502h7.93c.132 1.718.557 3.05 1.275 3.993.717.944 1.642 1.416 2.775 1.416 1.322 0 2.341-.632 3.059-1.897.717-1.284 1.076-3.191 1.076-5.721 0-2.379-.435-4.173-1.303-5.38-.85-1.21-2.049-1.813-3.597-1.813-1.51 0-2.68.519-3.511 1.557l-.51.708-6.372-1.642zm43.386-2.832h8.015v7.448h-8.015v11.526h-7.59V26.34h-8.156v-7.45h8.157V7.846h7.59V18.89z" fill="url(#paint0_linear)"/><defs><linearGradient id="paint0_linear" x1="-2" y1="2" x2="23.765" y2="49.859" gradientUnits="userSpaceOnUse"><stop stop-color="#D10A42"/><stop offset="1" stop-color="#0041CA"/></linearGradient></defs></svg>
